PC_client/assets/icon/wechat-gray.svg

<svg height="64" viewBox="0 0 1024 1024" width="64" xmlns="http://www.w3.org/2000/svg"><path d="m308.73856 119.23456c-285.0816 50.9184-380.1088 373.0048-153.34656 520.43008 12.43392 7.99232 12.43392 7.10656-6.21824 62.76096l-15.98464 47.65952 57.43104-30.78656 57.43104-30.78656 30.49216 7.40096c31.96928 7.99232 72.82432 13.61664 100.0576 13.61664h16.28416l-5.62688-21.61152c-44.70016-164.5952 109.82912-327.71072 310.83776-327.71072h27.23584l-5.62432-19.53792c-44.11136-154.23488-230.31552-253.99808-412.96896-221.43488zm-24.86784 144.16896c30.1952 20.4288 31.97184 64.5376 2.95936 83.48416-47.06816 30.78656-102.1312-23.38816-70.45632-69.57056 13.9136-20.72064 47.36768-27.53024 67.49696-13.9136zm242.74944 0c49.73312 33.45408 12.43392 110.71744-43.22304 89.40288-40.25856-15.39328-44.99712-70.75072-7.40096-90.5856 14.80192-7.99232 37.89312-7.40096 50.624 1.18272zm109.82912 121.96864c-141.2096 25.7536-239.19616 132.91776-233.57184 256.06912 7.40096 164.89216 200.71168 278.56896 386.32448 227.65056l21.90592-5.92128 46.1824 24.86784c25.4592 13.9136 46.77376 23.97952 47.36512 22.79424.59392-1.47968-4.43904-19.24096-10.95168-39.6672-14.80192-45.59104-15.09888-42.33472 4.736-56.54272 223.20896-160.15616 27.23584-481.64864-261.9904-429.25056zm-5.62432 132.91776c12.43136 8.28928 18.944 29.01248 13.61664 44.11136-11.24864 32.26624-59.50208 34.63424-72.52992 3.55072-14.80192-35.81952 26.05312-68.97664 58.91328-47.66208zm197.74976 3.55328c19.53792 18.6496 16.2816 50.32704-6.51264 62.16704-34.9312 17.76128-71.63904-17.76128-53.5808-51.80672 11.84-21.90592 42.33216-27.23328 60.09344-10.36032zm-264.27392 319.81312" fill="#666"/></svg>

<?xml version="1.0" standalone="no"?><!DOCTYPE svg PUBLIC "-//W3C//DTD SVG 1.1//EN" "http://www.w3.org/Graphics/SVG/1.1/DTD/svg11.dtd"><svg t="1542346707498" class="icon" style="" viewBox="0 0 1024 1024" version="1.1" xmlns="http://www.w3.org/2000/svg" p-id="10762" xmlns:xlink="http://www.w3.org/1999/xlink" width="64" height="64"><defs><style type="text/css"></style></defs><path d="M308.73856 119.23456C23.65696 170.15296-71.37024 492.23936 155.392 639.66464 167.82592 647.65696 167.82592 646.7712 149.17376 702.4256L133.18912 750.08512 190.62016 719.29856 248.0512 688.512 278.54336 695.91296C310.51264 703.90528 351.36768 709.5296 378.60096 709.5296L394.88512 709.5296 389.25824 687.91808C344.55808 523.32288 499.08736 360.20736 700.096 360.20736L727.33184 360.20736 721.70752 340.66944C677.59616 186.43456 491.392 86.67136 308.73856 119.23456zM283.87072 263.40352C314.06592 283.83232 315.84256 327.94112 286.83008 346.88768 239.76192 377.67424 184.69888 323.49952 216.37376 277.31712 230.28736 256.59648 263.74144 249.78688 283.87072 263.40352zM526.62016 263.40352C576.35328 296.8576 539.05408 374.12096 483.39712 352.8064 443.13856 337.41312 438.4 282.05568 475.99616 262.2208 490.79808 254.22848 513.88928 254.81984 526.62016 263.40352zM636.44928 385.37216C495.23968 411.12576 397.25312 518.28992 402.87744 641.44128 410.2784 806.33344 603.58912 920.01024 789.20192 869.09184L811.10784 863.17056 857.29024 888.0384C882.74944 901.952 904.064 912.01792 904.65536 910.83264 905.24928 909.35296 900.21632 891.59168 893.70368 871.16544 878.90176 825.5744 878.6048 828.83072 898.43968 814.62272 1121.64864 654.46656 925.67552 332.97408 636.44928 385.37216zM630.82496 518.28992C643.25632 526.5792 649.76896 547.3024 644.4416 562.40128 633.19296 594.66752 584.93952 597.03552 571.91168 565.952 557.10976 530.13248 597.9648 496.97536 630.82496 518.28992zM828.57472 521.8432C848.11264 540.4928 844.85632 572.17024 822.06208 584.01024 787.13088 601.77152 750.42304 566.24896 768.48128 532.20352 780.32128 510.2976 810.81344 504.97024 828.57472 521.8432zM564.3008 841.65632" p-id="10763" fill="#666666"></path></svg>
